; generated by Slic3r 0.9.10b on 2013-10-07 at 10:14:48

; layer_height = 0.4
; perimeters = 2
; top_solid_layers = 3
; bottom_solid_layers = 3
; fill_density = 0.4
; perimeter_speed = 65
; infill_speed = 80
; travel_speed = 195
; nozzle_diameter = 0.5
; filament_diameter = 3
; extrusion_multiplier = 1
; perimeters extrusion width = 0.53mm
; infill extrusion width = 0.53mm
; solid infill extrusion width = 0.53mm
; top infill extrusion width = 0.53mm
; support material extrusion width = 0.53mm
; first layer extrusion width = 0.70mm

G21 ; set units to millimeters
M107
M190 S60 ; wait for bed temperature to be reached
M104 S185 ; set temperature
G28 ; home all axes
M92 X62.9701; calibrate X
M92 Y62.6659; calibrate Y
M92 Z2375.1959; calibrate Z
M92 E472; calibrate E
M109 S185 ; wait for temperature to be reached
G90 ; use absolute coordinates
G92 E0
M82 ; use absolute distances for extrusion
G1 F1800.000 E-1.00000
G92 E0
G1 Z0.350 F11700.000
G1 X77.626 Y66.545
G1 F1800.000 E1.00000
G1 X78.706 Y65.585 F1365.000 E1.04701
G1 X79.946 Y64.855 E1.09383
G1 X81.316 Y64.385 E1.14095
G1 X82.746 Y64.195 E1.18789
G1 X83.616 Y64.165 E1.21621
G1 X98.876 Y64.165 E1.71270
G1 X99.596 Y64.195 E1.73614
G1 X100.306 Y64.305 E1.75952
G1 X100.456 Y64.335 E1.76449
G1 X101.836 Y64.755 E1.81143
G1 X103.096 Y65.425 E1.85786
G1 X104.196 Y66.335 E1.90430
G1 X105.106 Y67.445 E1.95100
G1 X105.786 Y68.705 E1.99759
G1 X106.196 Y70.075 E2.04411
G1 X106.336 Y71.505 E2.09086
G1 X106.316 Y72.635 E2.12763
G1 X106.186 Y73.495 E2.15593
G1 X103.466 Y88.215 E2.64296
G1 X103.276 Y89.045 E2.67066
G1 X103.086 Y89.725 E2.69363
G1 X102.976 Y90.045 E2.70464
G1 X102.646 Y90.835 E2.73249
G1 X102.396 Y91.355 E2.75127
G1 X102.046 Y92.005 E2.77528
G1 X101.436 Y92.925 E2.81120
G1 X101.046 Y93.415 E2.83157
G1 X100.436 Y94.075 E2.86081
G1 X99.526 Y94.935 E2.90155
G1 X98.636 Y95.575 E2.93722
G1 X97.956 Y95.985 E2.96305
G1 X97.526 Y96.215 E2.97892
G1 X96.126 Y96.845 E3.02887
G1 X95.596 Y97.035 E3.04718
G1 X94.766 Y97.275 E3.07529
G1 X94.116 Y97.425 E3.09700
G1 X92.766 Y97.665 E3.14161
G1 X92.136 Y97.745 E3.16227
G1 X91.386 Y97.795 E3.18673
G1 X90.116 Y97.825 E3.22806
G1 X83.336 Y97.825 E3.44865
G1 X82.346 Y97.765 E3.48092
G1 X80.896 Y97.485 E3.52896
G1 X79.546 Y96.925 E3.57651
G1 X78.326 Y96.105 E3.62434
G1 X77.256 Y95.005 E3.67427
G1 X76.376 Y93.615 E3.72779
G1 X75.836 Y92.065 E3.78120
G1 X75.656 Y90.435 E3.83455
G1 X75.656 Y72.005 E4.43417
G1 X75.666 Y71.495 E4.45077
G1 X75.766 Y70.395 E4.48671
G1 X76.126 Y68.995 E4.53374
G1 X76.756 Y67.695 E4.58074
G1 X77.566 Y66.624 E4.62445
G1 X78.106 Y66.985 F11700.000
G1 X79.086 Y66.115 F1365.000 E4.66708
G1 X80.226 Y65.455 E4.70994
G1 X81.466 Y65.025 E4.75264
G1 X82.766 Y64.855 E4.79530
G1 X83.866 Y64.815 E4.83111
G1 X98.876 Y64.815 E5.31946
G1 X99.536 Y64.855 E5.34098
G1 X100.186 Y64.945 E5.36233
G1 X100.336 Y64.975 E5.36730
G1 X101.576 Y65.355 E5.40950
G1 X102.726 Y65.975 E5.45201
G1 X103.736 Y66.805 E5.49454
G1 X104.566 Y67.805 E5.53682
G1 X105.176 Y68.955 E5.57917
G1 X105.556 Y70.205 E5.62168
G1 X105.686 Y71.505 E5.66419
G1 X105.686 Y71.995 E5.68013
G1 X105.656 Y72.575 E5.69902
G1 X105.556 Y73.325 E5.72364
G1 X102.826 Y88.095 E6.21233
G1 X102.636 Y88.895 E6.23908
G1 X102.466 Y89.505 E6.25968
G1 X102.356 Y89.825 E6.27069
G1 X102.056 Y90.545 E6.29607
G1 X101.806 Y91.065 E6.31484
G1 X101.476 Y91.685 E6.33769
G1 X100.916 Y92.525 E6.37054
G1 X100.546 Y92.985 E6.38974
G1 X99.976 Y93.605 E6.41715
G1 X99.106 Y94.425 E6.45604
G1 X98.266 Y95.025 E6.48963
G1 X97.646 Y95.405 E6.51329
G1 X97.216 Y95.635 E6.52915
G1 X96.396 Y96.025 E6.55870
G1 X95.376 Y96.415 E6.59422
G1 X94.626 Y96.635 E6.61965
G1 X93.976 Y96.785 E6.64136
G1 X92.996 Y96.965 E6.67378
G1 X92.056 Y97.085 E6.70461
G1 X91.376 Y97.145 E6.72682
G1 X90.106 Y97.175 E6.76815
G1 X83.336 Y97.175 E6.98841
G1 X82.406 Y97.115 E7.01873
G1 X81.086 Y96.865 E7.06244
G1 X79.856 Y96.345 E7.10589
G1 X78.746 Y95.595 E7.14947
G1 X77.766 Y94.595 E7.19503
G1 X76.976 Y93.325 E7.24369
G1 X76.476 Y91.915 E7.29236
G1 X76.306 Y90.435 E7.34083
G1 X76.306 Y72.015 E7.94013
G1 X76.316 Y71.505 E7.95673
G1 X76.416 Y70.495 E7.98975
G1 X76.746 Y69.225 E8.03244
G1 X77.316 Y68.035 E8.07537
G1 X78.047 Y67.064 E8.11491
G1 F1800.000 E7.11491
G92 E0
G1 X94.016 Y88.686 F11700.000
G1 F1800.000 E1.00000
G1 X93.321 Y89.036 F1365.000 E1.02531
G1 X92.856 Y89.194 E1.04130
G1 X92.225 Y89.346 E1.06240
G1 X91.710 Y89.435 E1.07940
G1 X91.133 Y89.503 E1.09832
G1 X89.942 Y89.532 E1.13708
G1 X85.256 Y89.539 E1.28952
G1 X85.446 Y88.860 E1.31246
G1 X85.520 Y88.457 E1.32578
G1 X85.569 Y88.053 E1.33904
G1 X85.573 Y75.495 E1.74759
G1 X85.569 Y73.969 E1.79726
G1 X85.488 Y73.334 E1.81809
G1 X85.436 Y73.085 E1.82637
G1 X85.246 Y72.465 E1.84747
G1 X86.597 Y72.462 E1.89142
G1 X86.371 Y73.322 E1.92033
G1 X86.290 Y73.990 E1.94223
G1 X86.281 Y74.221 E1.94975
G1 X86.273 Y79.449 E2.11984
G1 X86.285 Y79.766 E2.13017
G1 X86.444 Y80.651 E2.15944
G1 X87.459 Y80.733 E2.19256
G1 X88.637 Y80.741 E2.23090
G1 X89.592 Y80.705 E2.26197
G1 X90.023 Y80.635 E2.27618
G1 X90.248 Y80.574 E2.28377
G1 X90.665 Y80.394 E2.29857
G1 X90.956 Y80.226 E2.30948
G1 X91.496 Y80.977 E2.33959
G1 X91.695 Y81.148 E2.34812
G1 X91.941 Y81.288 E2.35734
G1 X92.098 Y81.325 E2.36257
G1 X92.281 Y81.399 E2.36901
G1 X93.119 Y81.809 E2.39934
G1 X93.675 Y82.152 E2.42059
G1 X94.052 Y82.465 E2.43657
G1 X94.378 Y82.789 E2.45152
G1 X94.635 Y83.098 E2.46459
G1 X94.961 Y83.614 E2.48446
G1 X95.091 Y83.899 E2.49464
G1 X95.228 Y84.289 E2.50809
G1 X95.318 Y84.682 E2.52121
G1 X95.388 Y85.169 E2.53722
G1 X95.394 Y86.069 E2.56648
G1 X95.331 Y86.631 E2.58488
G1 X95.221 Y87.081 E2.59996
G1 X95.135 Y87.343 E2.60893
G1 X94.850 Y87.887 E2.62892
G1 X94.411 Y88.380 E2.65040
G1 X94.265 Y88.515 E2.65688
G1 X94.096 Y88.629 E2.66349
G1 F1800.000 E1.66349
G92 E0
G1 X92.911 Y78.667 F11700.000
G1 F1800.000 E1.00000
G1 X92.443 Y78.387 F630.000 E1.01775
G1 X94.481 Y74.514 E1.16015
G1 X95.279 Y73.082 E1.21348
G1 X95.674 Y72.466 E1.23729
G1 X96.624 Y72.463 E1.26821
G1 X95.785 Y73.732 E1.31770
G1 X93.923 Y77.123 E1.44359
G1 X93.553 Y77.726 E1.46661
G1 X92.966 Y78.586 E1.50047
G1 X93.440 Y78.967 F11700.000
G1 X93.267 Y79.146 F1365.000 E1.50856
G1 X92.861 Y79.492 E1.52591
G1 X92.598 Y79.663 E1.53611
G1 X92.091 Y79.929 E1.55475
G1 X91.717 Y80.160 E1.56904
G1 X91.983 Y80.530 E1.58386
G1 X92.074 Y80.608 E1.58774
G1 X92.184 Y80.670 E1.59187
G1 X92.302 Y80.696 E1.59578
G1 X92.729 Y80.875 E1.61086
G1 X93.419 Y81.220 E1.63596
G1 X94.052 Y81.614 E1.66022
G1 X94.485 Y81.971 E1.67848
G1 X94.869 Y82.353 E1.69610
G1 X95.206 Y82.762 E1.71334
G1 X95.530 Y83.286 E1.73338
G1 X95.722 Y83.699 E1.74819
G1 X95.877 Y84.176 E1.76452
G1 X95.965 Y84.568 E1.77759
G1 X96.036 Y85.056 E1.79365
G1 X96.058 Y85.795 E1.81770
G1 X96.036 Y86.289 E1.83378
G1 X95.970 Y86.797 E1.85046
G1 X95.853 Y87.262 E1.86604
G1 X95.754 Y87.562 E1.87634
G1 X95.527 Y88.032 E1.89332
G1 X95.279 Y88.410 E1.90801
G1 X95.088 Y88.625 E1.91738
G1 X94.685 Y89.022 E1.93580
G1 X94.347 Y89.255 E1.94914
G1 X93.935 Y89.476 E1.96434
G1 X93.537 Y89.659 E1.97860
G1 X93.047 Y89.829 E1.99546
G1 X92.404 Y89.981 E2.01696
G1 X91.804 Y90.085 E2.03678
G1 X91.189 Y90.158 E2.05692
G1 X89.948 Y90.189 E2.09732
G1 X83.513 Y90.191 E2.30669
G1 X83.482 Y90.050 E2.31137
G1 X84.033 Y89.785 E2.33128
G1 X84.166 Y89.703 E2.33635
G1 X84.418 Y89.470 E2.34753
G1 X84.632 Y89.191 E2.35898
G1 X84.714 Y89.041 E2.36453
G1 X84.807 Y88.708 E2.37576
G1 X84.912 Y88.020 E2.39843
G1 X84.916 Y75.496 E2.80587
G1 X84.912 Y74.007 E2.85434
G1 X84.840 Y73.449 E2.87265
G1 X84.745 Y73.073 E2.88524
G1 X84.599 Y72.774 E2.89608
G1 X84.405 Y72.523 E2.90639
G1 X84.168 Y72.320 E2.91654
G1 X84.048 Y72.250 E2.92108
G1 X83.433 Y71.961 E2.94319
G1 X83.464 Y71.816 E2.94798
G1 X88.469 Y71.809 E3.11084
G1 X88.497 Y72.016 E3.11763
G1 X88.017 Y72.148 E3.13382
G1 X87.755 Y72.288 E3.14349
G1 X87.517 Y72.465 E3.15313
G1 X87.282 Y72.735 E3.16479
G1 X87.123 Y73.043 E3.17606
G1 X87.032 Y73.374 E3.18724
G1 X86.946 Y74.041 E3.20912
G1 X86.925 Y76.041 E3.27420
G1 X86.940 Y79.696 E3.39310
G1 X87.001 Y80.037 E3.40438
G1 X87.491 Y80.077 E3.42036
G1 X88.012 Y80.085 E3.43732
G1 X89.183 Y80.073 E3.47541
G1 X89.507 Y80.052 E3.48600
G1 X89.953 Y79.977 E3.50069
G1 X90.229 Y79.876 E3.51027
G1 X90.605 Y79.659 E3.52439
G1 X90.857 Y79.448 E3.53509
G1 X91.121 Y79.169 E3.54759
G1 X91.449 Y78.730 E3.56542
G1 X91.783 Y78.188 E3.58612
G1 X94.434 Y73.226 E3.76916
G1 X94.852 Y72.523 E3.79577
G1 X95.330 Y71.810 E3.82371
G1 X98.466 Y71.805 E3.92572
G1 X98.495 Y71.900 E3.92895
G1 X98.155 Y72.131 E3.94232
G1 X97.814 Y72.302 E3.95473
G1 X97.483 Y72.582 E3.96883
G1 X97.118 Y72.952 E3.98574
G1 X96.858 Y73.286 E3.99952
G1 X96.442 Y73.916 E4.02406
G1 X96.189 Y74.349 E4.04039
G1 X94.502 Y77.435 E4.15483
G1 X94.281 Y77.809 E4.16895
G1 X93.778 Y78.561 E4.19838
G1 X93.503 Y78.892 E4.21238
G1 X93.197 Y78.913 F11700.000
G1 F1800.000 E3.21238
G92 E0
G1 X91.115 Y81.264 F11700.000
G1 F1800.000 E1.00000
G1 X90.729 Y80.878 F1470.000 E1.01791
G1 X90.031 Y81.117 E1.04213
G1 X94.916 Y86.002 E1.26879
G1 X94.796 Y86.819 E1.29590
G1 X89.174 Y81.197 E1.55675
G1 X88.255 Y81.215 E1.58692
G1 X94.527 Y87.487 E1.87796
G1 X94.106 Y88.003 E1.89981
G1 X87.301 Y81.198 E2.21556
G1 X86.282 Y81.116 E2.24911
G1 X93.560 Y88.394 E2.58681
G1 X92.904 Y88.676 E2.61022
G1 X86.050 Y81.822 E2.92824
G1 X86.049 Y82.758 E2.95896
G1 X92.164 Y88.872 E3.24265
G1 X91.352 Y88.997 E3.26960
G1 X86.049 Y83.694 E3.51566
G1 X86.048 Y84.630 E3.54638
G1 X90.462 Y89.045 E3.75121
G1 X89.529 Y89.048 E3.78184
G1 X86.047 Y85.567 E3.94339
G1 X86.046 Y86.503 E3.97411
G1 X88.595 Y89.052 E4.09238
G1 X87.662 Y89.056 E4.12301
G1 X86.045 Y87.439 E4.19801
G1 X86.010 Y88.341 E4.22763
G1 X86.728 Y89.059 E4.26094
G1 F1800.000 E3.26094
G92 E0
G1 X91.216 Y81.365 F11700.000
G1 F1800.000 E1.00000
G1 X94.888 Y85.037 F1470.000 E1.17039
G1 X94.402 Y83.614 E1.21972
G1 X93.215 Y82.427 E1.27479
G1 F1800.000 E0.27479
G92 E0
G1 X91.915 Y79.253 F11700.000
G1 F1800.000 E1.00000
G1 X91.910 Y79.248 F420.000 E1.00023
G1 F1800.000 E0.00023
G92 E0
G1 X85.944 Y73.081 F11700.000
G1 F1800.000 E1.00000
G1 X85.905 Y73.042 F420.000 E1.00089
M106 S255
G1 F1800.000 E0.00089
G92 E0
G1 Z0.750 F11700.000
G1 X83.616 Y64.165
G1 F1800.000 E1.00000
G1 X98.876 Y64.165 F2249.087 E1.56741
G1 X99.596 Y64.195 E1.59421
G1 X100.456 Y64.335 E1.62661
G1 X101.836 Y64.755 E1.68024
G1 X103.096 Y65.425 E1.73331
G1 X104.196 Y66.335 E1.78639
G1 X105.106 Y67.445 E1.83976
G1 X105.786 Y68.705 E1.89300
G1 X106.196 Y70.075 E1.94617
G1 X106.336 Y71.505 E1.99960
G1 X106.316 Y72.635 E2.04162
G1 X106.186 Y73.495 E2.07396
G1 X103.466 Y88.215 E2.63056
G1 X103.276 Y89.045 E2.66222
G1 X103.086 Y89.725 E2.68848
G1 X102.976 Y90.045 E2.70106
G1 X102.646 Y90.835 E2.73289
G1 X102.396 Y91.355 E2.75435
G1 X102.046 Y92.005 E2.78180
G1 X101.436 Y92.925 E2.82284
G1 X101.046 Y93.415 E2.84613
G1 X100.436 Y94.075 E2.87954
G1 X99.526 Y94.935 E2.92610
G1 X98.636 Y95.575 E2.96686
G1 X97.956 Y95.985 E2.99639
G1 X97.526 Y96.215 E3.01452
G1 X96.126 Y96.845 E3.07160
G1 X95.596 Y97.035 E3.09254
G1 X94.766 Y97.275 E3.12466
G1 X94.116 Y97.425 E3.14947
G1 X93.106 Y97.615 E3.18768
G1 X92.136 Y97.745 E3.22407
G1 X91.386 Y97.795 E3.25202
G1 X90.116 Y97.825 E3.29926
G1 X83.336 Y97.825 E3.55136
G1 X82.346 Y97.765 E3.58824
G1 X80.896 Y97.485 E3.64315
G1 X79.546 Y96.925 E3.69749
G1 X78.326 Y96.105 E3.75215
G1 X77.256 Y95.005 E3.80921
G1 X76.376 Y93.615 E3.87038
G1 X75.836 Y92.065 E3.93141
G1 X75.656 Y90.435 E3.99239
G1 X75.656 Y72.005 E4.67768
G1 X75.666 Y71.495 E4.69664
G1 X75.766 Y70.395 E4.73771
G1 X76.126 Y68.995 E4.79146
G1 X76.756 Y67.695 E4.84518
G1 X77.626 Y66.545 E4.89880
G1 X78.706 Y65.585 E4.95253
G1 X79.946 Y64.855 E5.00603
G1 X81.316 Y64.385 E5.05988
G1 X82.746 Y64.195 E5.11352
G1 X83.517 Y64.168 E5.14223
G1 X83.636 Y64.825 F11700.000
G1 X98.876 Y64.815 F2249.087 E5.70890
G1 X99.536 Y64.855 E5.73348
G1 X100.186 Y64.945 E5.75788
G1 X100.336 Y64.975 E5.76357
G1 X101.576 Y65.355 E5.81179
G1 X102.726 Y65.975 E5.86037
G1 X103.736 Y66.805 E5.90898
G1 X104.566 Y67.805 E5.95731
G1 X105.176 Y68.955 E6.00571
G1 X105.556 Y70.205 E6.05429
G1 X105.686 Y71.505 E6.10287
G1 X105.686 Y71.995 E6.12109
G1 X105.656 Y72.575 E6.14268
G1 X105.586 Y73.155 E6.16440
G1 X102.826 Y88.095 E6.72932
G1 X102.636 Y88.895 E6.75989
G1 X102.466 Y89.505 E6.78344
G1 X102.356 Y89.825 E6.79602
G1 X102.056 Y90.545 E6.82502
G1 X101.806 Y91.065 E6.84648
G1 X101.476 Y91.685 E6.87259
G1 X100.916 Y92.525 E6.91013
G1 X100.776 Y92.705 E6.91861
G1 X100.346 Y93.215 E6.94342
G1 X99.976 Y93.605 E6.96341
G1 X99.106 Y94.425 E7.00786
G1 X98.266 Y95.025 E7.04624
G1 X97.646 Y95.405 E7.07328
G1 X97.216 Y95.635 E7.09141
G1 X96.396 Y96.025 E7.12518
G1 X95.906 Y96.225 E7.14486
G1 X95.376 Y96.415 E7.16579
G1 X94.626 Y96.635 E7.19485
G1 X93.976 Y96.785 E7.21966
G1 X92.996 Y96.965 E7.25671
G1 X92.056 Y97.085 E7.29194
G1 X91.376 Y97.145 E7.31732
G1 X90.106 Y97.175 E7.36456
G1 X83.336 Y97.175 E7.61629
G1 X82.406 Y97.115 E7.65094
G1 X81.086 Y96.865 E7.70090
G1 X79.856 Y96.345 E7.75055
G1 X78.746 Y95.595 E7.80036
G1 X77.766 Y94.595 E7.85242
G1 X76.976 Y93.325 E7.90804
G1 X76.476 Y91.915 E7.96366
G1 X76.306 Y90.435 E8.01906
G1 X76.306 Y72.015 E8.70397
G1 X76.316 Y71.505 E8.72294
G1 X76.416 Y70.495 E8.76068
G1 X76.746 Y69.225 E8.80947
G1 X77.316 Y68.035 E8.85853
G1 X78.106 Y66.985 E8.90739
G1 X79.086 Y66.115 E8.95611
G1 X80.226 Y65.455 E9.00509
G1 X81.466 Y65.025 E9.05389
G1 X82.766 Y64.855 E9.10264
G1 X83.537 Y64.828 E9.13135
G1 F1800.000 E8.13135
G92 E0
G1 X92.273 Y89.547 F11700.000
G1 F1800.000 E1.00000
G1 X91.740 Y89.639 F2249.087 E1.01591
G1 X91.151 Y89.708 E1.03335
G1 X90.741 Y89.726 E1.04542
G1 X84.844 Y89.746 E1.21882
G1 X85.134 Y89.212 E1.23669
G1 X85.283 Y88.624 E1.25452
G1 X85.362 Y88.042 E1.27178
G1 X85.366 Y75.496 E1.64072
G1 X85.362 Y73.981 E1.68527
G1 X85.285 Y73.370 E1.70338
G1 X85.169 Y72.918 E1.71708
G1 X85.082 Y72.714 E1.72362
G1 X84.829 Y72.259 E1.73892
G1 X87.044 Y72.255 E1.80406
G1 X86.791 Y72.678 E1.81856
G1 X86.696 Y72.895 E1.82552
G1 X86.573 Y73.360 E1.83967
G1 X86.496 Y74.006 E1.85879
G1 X86.474 Y76.040 E1.91862
G1 X86.480 Y79.444 E2.01870
G1 X86.490 Y79.744 E2.02753
G1 X86.619 Y80.459 E2.04888
G1 X87.469 Y80.527 E2.07395
G1 X88.009 Y80.536 E2.08982
G1 X89.202 Y80.524 E2.12491
G1 X89.565 Y80.500 E2.13563
G1 X90.069 Y80.413 E2.15064
G1 X90.403 Y80.293 E2.16109
G1 X90.719 Y80.124 E2.17163
G1 X91.002 Y79.938 E2.18161
G1 X91.649 Y80.837 E2.21417
G1 X91.814 Y80.978 E2.22056
G1 X92.017 Y81.094 E2.22745
G1 X92.165 Y81.129 E2.23191
G1 X92.546 Y81.290 E2.24408
G1 X93.211 Y81.623 E2.26593
G1 X93.790 Y81.981 E2.28594
G1 X94.188 Y82.310 E2.30115
G1 X94.532 Y82.652 E2.31542
G1 X94.841 Y83.028 E2.32972
G1 X95.139 Y83.510 E2.34638
G1 X95.286 Y83.830 E2.35674
G1 X95.438 Y84.277 E2.37063
G1 X95.521 Y84.646 E2.38175
G1 X95.592 Y85.139 E2.39638
G1 X95.600 Y86.080 E2.42405
G1 X95.533 Y86.676 E2.44168
G1 X95.440 Y87.063 E2.45340
G1 X95.330 Y87.410 E2.46411
G1 X95.188 Y87.710 E2.47384
G1 X95.021 Y88.003 E2.48377
G1 X94.758 Y88.318 E2.49586
G1 X94.396 Y88.674 E2.51078
G1 X94.118 Y88.866 E2.52073
G1 X93.394 Y89.229 E2.54452
G1 X92.920 Y89.392 E2.55926
G1 X92.348 Y89.525 E2.57655
G1 F1800.000 E1.57655
G92 E0
G1 X93.028 Y78.749 F11700.000
G1 F1800.000 E1.00000
G1 X92.586 Y79.131 F1038.040 E1.01719
G1 X92.419 Y79.243 E1.02310
G1 X91.582 Y79.671 E1.05074
G1 X91.450 Y79.518 E1.05670
G1 X91.825 Y78.978 E1.07603
G1 X92.174 Y78.414 E1.09555
G1 X94.706 Y73.674 E1.25355
G1 X95.115 Y72.956 E1.27786
G1 X95.565 Y72.260 E1.30224
G1 X97.116 Y72.255 E1.34783
G1 X96.559 Y72.932 E1.37361
G1 X96.062 Y73.674 E1.39989
G1 X95.715 Y74.271 E1.42019
G1 X94.105 Y77.220 E1.51899
G1 X93.768 Y77.773 E1.53803
G1 X93.430 Y78.272 E1.55576
G1 X93.081 Y78.692 E1.57179
G1 X93.475 Y79.031 F11700.000
G1 X93.314 Y79.197 F2249.087 E1.57858
G1 X92.905 Y79.546 E1.59440
G1 X92.634 Y79.722 E1.60391
G1 X92.187 Y79.954 E1.61871
G1 X91.816 Y80.180 E1.63148
G1 X92.034 Y80.483 E1.64246
G1 X92.113 Y80.551 E1.64553
G1 X92.209 Y80.605 E1.64878
G1 X92.333 Y80.635 E1.65251
G1 X92.767 Y80.814 E1.66632
