; generated by Slic3r 0.9.10b on 2013-10-11 at 18:58:40

; layer_height = 0.4
; perimeters = 2
; top_solid_layers = 3
; bottom_solid_layers = 3
; fill_density = 0.4
; perimeter_speed = 65
; infill_speed = 80
; travel_speed = 195
; nozzle_diameter = 0.5
; filament_diameter = 3
; extrusion_multiplier = 1
; perimeters extrusion width = 0.53mm
; infill extrusion width = 0.53mm
; solid infill extrusion width = 0.53mm
; top infill extrusion width = 0.53mm
; support material extrusion width = 0.53mm
; first layer extrusion width = 0.70mm

G21 ; set units to millimeters
M107
M190 S60 ; wait for bed temperature to be reached
M104 S185 ; set temperature
G28 ; home all axes
M92 X62.9701; calibrate X
M92 Y62.6659; calibrate Y
M92 Z2375.1959; calibrate Z
M92 E472; calibrate E
M109 S185 ; wait for temperature to be reached
G90 ; use absolute coordinates
G92 E0
M82 ; use absolute distances for extrusion
G1 F1800.000 E-1.00000
G92 E0
G1 Z0.350 F11700.000
G1 X52.351 Y58.437
G1 F1800.000 E1.00000
G1 X53.691 Y57.607 F1365.000 E1.05128
G1 X54.911 Y57.017 E1.09537
G1 X56.461 Y56.467 E1.14888
G1 X58.091 Y56.287 E1.20224
G1 X124.091 Y56.287 E3.34956
G1 X125.481 Y56.417 E3.39498
G1 X126.831 Y56.817 E3.44079
G1 X128.071 Y57.457 E3.48619
G1 X129.171 Y58.327 E3.53182
G1 X132.511 Y61.547 E3.68277
G1 X133.541 Y62.807 E3.73572
G1 X134.281 Y64.257 E3.78868
G1 X134.681 Y65.827 E3.84139
G1 X134.861 Y67.147 E3.88474
G1 X134.921 Y68.197 E3.91895
G1 X134.711 Y91.957 E4.69202
G1 X134.681 Y93.267 E4.73465
G1 X134.581 Y94.347 E4.76994
G1 X134.311 Y95.407 E4.80553
G1 X133.871 Y96.727 E4.85080
G1 X133.601 Y97.417 E4.87491
G1 X133.011 Y98.727 E4.92165
G1 X132.711 Y99.317 E4.94319
G1 X131.231 Y101.947 E5.04137
G1 X130.321 Y103.227 E5.09247
G1 X129.141 Y104.287 E5.14408
G1 X127.771 Y105.067 E5.19537
G1 X126.261 Y105.537 E5.24682
G1 X125.491 Y105.687 E5.27234
G1 X124.831 Y105.787 E5.29406
G1 X124.161 Y105.817 E5.31588
G1 X118.161 Y105.877 E5.51110
G1 X58.141 Y106.307 E7.46392
G1 X56.421 Y106.117 E7.52022
G1 X54.801 Y105.527 E7.57631
G1 X53.531 Y104.887 E7.62258
G1 X52.321 Y104.117 E7.66924
G1 X51.281 Y103.137 E7.71574
G1 X50.461 Y101.967 E7.76222
G1 X48.971 Y99.337 E7.86057
G1 X48.461 Y98.227 E7.90031
G1 X48.141 Y97.047 E7.94009
G1 X47.901 Y95.737 E7.98342
G1 X47.811 Y95.077 E8.00509
G1 X47.781 Y94.417 E8.02659
G1 X47.781 Y66.817 E8.92456
G1 X47.991 Y65.057 E8.98223
G1 X48.621 Y63.407 E9.03969
G1 X49.311 Y62.097 E9.08786
G1 X49.691 Y61.457 E9.11208
G1 X50.141 Y60.847 E9.13674
G1 X51.231 Y59.527 E9.19244
G1 X52.281 Y58.506 E9.24008
G1 X52.761 Y58.947 F11700.000
G1 X53.971 Y58.197 F1365.000 E9.28639
G1 X55.191 Y57.607 E9.33048
G1 X56.601 Y57.107 E9.37916
G1 X58.091 Y56.937 E9.42795
G1 X124.091 Y56.937 E11.57527
G1 X125.361 Y57.057 E11.61678
G1 X126.581 Y57.427 E11.65826
G1 X127.711 Y58.007 E11.69958
G1 X128.711 Y58.807 E11.74125
G1 X132.051 Y62.027 E11.89219
G1 X132.991 Y63.167 E11.94026
G1 X133.661 Y64.487 E11.98843
G1 X134.031 Y65.917 E12.03648
G1 X134.211 Y67.237 E12.07983
G1 X134.271 Y68.197 E12.11112
G1 X134.061 Y91.937 E12.88354
G1 X134.031 Y93.247 E12.92617
G1 X133.931 Y94.237 E12.95854
G1 X133.691 Y95.207 E12.99105
G1 X133.251 Y96.527 E13.03632
G1 X133.001 Y97.147 E13.05807
G1 X132.411 Y98.457 E13.10482
G1 X132.141 Y98.987 E13.12417
G1 X130.661 Y101.617 E13.22236
G1 X129.821 Y102.787 E13.26922
G1 X128.761 Y103.757 E13.31596
G1 X127.511 Y104.467 E13.36274
G1 X126.131 Y104.887 E13.40967
G1 X125.361 Y105.037 E13.43519
G1 X124.761 Y105.127 E13.45493
G1 X124.161 Y105.167 E13.47450
G1 X118.161 Y105.227 E13.66972
G1 X58.141 Y105.657 E15.62253
G1 X56.571 Y105.477 E15.67395
G1 X55.091 Y104.937 E15.72520
G1 X53.821 Y104.297 E15.77147
G1 X52.721 Y103.607 E15.81372
G1 X51.781 Y102.707 E15.85606
G1 X51.031 Y101.637 E15.89857
G1 X49.541 Y99.007 E15.99692
G1 X49.071 Y97.997 E16.03316
G1 X48.781 Y96.927 E16.06923
G1 X48.541 Y95.617 E16.11256
G1 X48.461 Y95.017 E16.13226
G1 X48.431 Y94.417 E16.15180
G1 X48.431 Y66.817 E17.04977
G1 X48.631 Y65.217 E17.10223
G1 X49.201 Y63.717 E17.15444
G1 X49.891 Y62.407 E17.20261
G1 X50.241 Y61.817 E17.22493
G1 X50.651 Y61.267 E17.24725
G1 X51.741 Y59.947 E17.30295
G1 X52.691 Y59.016 E17.34622
G1 F1800.000 E16.34622
G92 E0
G1 X56.873 Y64.196 F11700.000
G1 F1800.000 E1.00000
G1 X124.681 Y64.196 F1260.000 E3.20615
G1 X125.710 Y65.510 E3.26045
G1 X55.786 Y65.510 E5.53543
G1 F1800.000 E4.53543
G92 E0
G1 X55.337 Y95.735 F11700.000
G1 F1800.000 E1.00000
G1 X89.064 Y95.735 F1260.000 E2.09733
G1 X88.465 Y94.421 E2.14433
G1 X55.091 Y94.421 E3.23013
G1 X55.091 Y93.107 E3.27289
G1 X88.203 Y93.107 E4.35019
G1 X88.029 Y91.793 E4.39332
G1 X55.091 Y91.793 E5.46496
G1 X55.091 Y90.479 E5.50772
G1 X87.823 Y90.479 E6.57264
G1 X87.616 Y89.165 E6.61592
G1 X55.091 Y89.165 E7.67412
G1 X55.091 Y87.850 E7.71688
G1 X87.439 Y87.850 E8.76931
G1 X87.279 Y86.536 E8.81239
G1 X55.091 Y86.536 E9.85962
G1 X55.091 Y85.222 E9.90238
G1 X87.102 Y85.222 E10.94385
G1 X86.978 Y83.908 E10.98680
G1 X55.091 Y83.908 E12.02424
G1 X55.091 Y82.594 E12.06699
G1 X86.861 Y82.594 E13.10061
G1 X86.757 Y81.280 E13.14350
G1 X55.091 Y81.280 E14.17374
G1 X55.091 Y79.966 E14.21649
G1 X86.696 Y79.966 E15.24475
G1 X86.646 Y78.651 E15.28754
G1 X55.091 Y78.651 E16.31417
G1 X55.091 Y77.337 E16.35693
G1 X86.541 Y77.337 E17.38014
G1 X86.505 Y76.023 E17.42291
G1 X55.091 Y76.023 E18.44494
G1 X55.091 Y74.709 E18.48770
G1 X86.492 Y74.709 E19.50934
G1 X86.489 Y73.395 E19.55209
G1 X55.091 Y73.395 E20.57362
G1 X55.091 Y72.081 E20.61637
G1 X86.488 Y72.081 E21.63785
G1 X86.486 Y70.766 E21.68061
G1 X55.091 Y70.766 E22.70205
G1 X55.091 Y69.452 E22.74481
G1 X86.485 Y69.452 E23.76621
G1 X86.484 Y68.138 E23.80897
G1 X55.091 Y68.138 E24.83033
G1 X55.091 Y66.824 E24.87309
G1 X86.582 Y66.824 E25.89766
G1 X88.272 Y66.824 F11700.000
G1 X93.231 Y66.824 F1260.000 E26.05901
G1 X93.037 Y68.138 E26.10223
G1 X88.410 Y68.138 E26.25275
G1 X88.414 Y69.452 E26.29551
G1 X93.030 Y69.452 E26.44570
G1 X93.008 Y70.766 E26.48846
G1 X88.418 Y70.766 E26.63779
G1 X88.422 Y72.081 E26.68055
G1 X92.976 Y72.081 E26.82872
G1 X92.904 Y73.395 E26.87154
G1 X88.426 Y73.395 E27.01721
G1 X88.436 Y74.709 E27.05997
G1 X92.829 Y74.709 E27.20288
G1 X92.752 Y76.023 E27.24571
G1 X88.495 Y76.023 E27.38422
G1 X88.528 Y77.337 E27.42699
G1 X92.704 Y77.337 E27.56283
G1 X92.613 Y78.651 E27.60569
G1 X88.574 Y78.651 E27.73709
G1 X88.681 Y79.966 E27.77999
G1 X92.544 Y79.966 E27.90567
G1 X92.486 Y81.280 E27.94847
G1 X88.833 Y81.280 E28.06733
G1 X88.979 Y82.594 E28.11035
G1 X92.391 Y82.594 E28.22137
G1 X92.310 Y83.908 E28.26421
G1 X89.124 Y83.908 E28.36787
G1 X89.253 Y85.222 E28.41084
G1 X92.194 Y85.222 E28.50652
G1 X92.079 Y86.536 E28.54944
G1 X89.473 Y86.536 E28.63421
G1 X89.670 Y87.850 E28.67745
G1 X91.943 Y87.850 E28.75139
G1 X91.808 Y89.165 E28.79438
G1 X89.868 Y89.165 E28.85749
G1 X90.103 Y90.479 E28.90093
G1 X91.655 Y90.479 E28.95142
G1 X91.476 Y91.793 E28.99457
G1 X90.319 Y91.793 E29.03224
G1 X90.556 Y93.107 E29.07568
G1 X91.325 Y93.107 E29.10073
G1 X91.174 Y94.421 E29.14376
G1 X90.802 Y94.421 E29.15587
G1 X90.435 Y95.735 E29.20027
G1 X91.631 Y95.735 E29.23918
G1 X92.900 Y95.735 F11700.000
G1 X126.347 Y95.735 F1260.000 E30.32740
G1 X125.237 Y97.050 E30.38337
G1 X56.394 Y97.050 E32.62320
G1 X56.826 Y98.364 E32.66821
G1 X124.862 Y98.364 E34.88179
G1 F1800.000 E33.88179
G92 E0
G1 X93.445 Y94.421 F11700.000
G1 F1800.000 E1.00000
G1 X126.934 Y94.421 F1260.000 E2.08958
G1 X127.372 Y93.107 E2.13465
G1 X93.610 Y93.107 E3.23310
G1 X93.738 Y91.793 E3.27606
G1 X127.404 Y91.793 E4.37137
G1 X127.168 Y90.479 E4.41480
G1 X93.886 Y90.479 E5.49764
G1 X94.019 Y89.165 E5.54061
G1 X127.153 Y89.165 E6.61865
G1 X127.162 Y87.850 E6.66140
G1 X94.121 Y87.850 E7.73639
G1 X94.237 Y86.536 E7.77931
G1 X127.165 Y86.536 E8.85062
G1 X127.153 Y85.222 E8.89338
G1 X94.313 Y85.222 E9.96184
G1 X94.455 Y83.908 E10.00485
G1 X126.762 Y83.908 E11.05596
G1 X127.220 Y82.594 E11.10125
G1 X94.516 Y82.594 E12.16527
G1 X94.602 Y81.280 E12.20812
G1 X127.248 Y81.280 E13.27028
G1 X127.342 Y79.966 E13.31314
G1 X94.668 Y79.966 E14.37619
G1 X94.705 Y78.651 E14.41897
G1 X127.475 Y78.651 E15.48515
G1 X126.718 Y77.337 E15.53450
G1 X94.741 Y77.337 E16.57486
G1 X94.792 Y76.023 E16.61765
G1 X127.121 Y76.023 E17.66945
G1 X127.157 Y74.709 E17.71222
G1 X94.845 Y74.709 E18.76350
G1 X94.871 Y73.395 E18.80626
G1 X127.164 Y73.395 E19.85692
G1 X127.171 Y72.081 E19.89967
G1 X94.903 Y72.081 E20.94951
G1 X94.951 Y70.766 E20.99229
G1 X127.168 Y70.766 E22.04049
G1 X127.278 Y69.452 E22.08340
G1 X94.999 Y69.452 E23.13363
G1 X94.997 Y68.138 E23.17638
G1 X127.621 Y68.138 E24.23782
G1 X127.439 Y66.824 E24.28099
G1 X94.814 Y66.824 E25.34244
G1 F1800.000 E24.34244
G92 E0
G1 X88.038 Y83.808 F11700.000
G1 F1800.000 E1.00000
G1 X87.540 Y77.956 F630.000 E1.19108
G1 X87.446 Y67.298 E1.53787
G1 F1800.000 E0.53787
G92 E0
G1 X93.974 Y67.257 F11700.000
G1 F1800.000 E1.00000
G1 X93.957 Y71.660 F630.000 E1.14327
G1 X93.957 Y71.660 F11700.000
G1 X93.618 Y79.063 F630.000 E1.38436
G1 X93.618 Y79.063 F11700.000
G1 X93.562 Y80.791 F630.000 E1.44064
G1 X93.562 Y80.791 F11700.000
G1 X93.510 Y81.584 F630.000 E1.46649
G1 X93.510 Y81.584 F11700.000
G1 X93.486 Y82.060 F630.000 E1.48200
G1 X93.486 Y82.060 F11700.000
G1 X93.446 Y82.525 F630.000 E1.49717
G1 X93.446 Y82.525 F11700.000
G1 X93.382 Y83.750 F630.000 E1.53710
G1 X93.382 Y83.750 F11700.000
G1 X92.315 Y94.772 F630.000 E1.89736
G1 F1800.000 E0.89736
G92 E0
G1 X89.727 Y94.799 F11700.000
G1 F1800.000 E1.00000
G1 X89.440 Y93.493 F630.000 E1.04349
G1 X89.440 Y93.493 F11700.000
G1 X89.323 Y92.806 F630.000 E1.06617
G1 X89.323 Y92.806 F11700.000
G1 X89.123 Y91.562 F630.000 E1.10715
G1 X89.123 Y91.562 F11700.000
G1 X88.538 Y87.736 F630.000 E1.23308
G1 X88.538 Y87.736 F11700.000
G1 X88.368 Y86.590 F630.000 E1.27079
G1 X88.368 Y86.590 F11700.000
G1 X88.337 Y86.323 F630.000 E1.27954
G1 X88.337 Y86.323 F11700.000
G1 X88.038 Y83.808 F630.000 E1.36192
M106 S209
G1 F1800.000 E0.36192
G92 E0
G1 Z0.750 F11700.000
G1 X118.141 Y105.877
G1 F1800.000 E1.00000
G1 X58.141 Y106.307 F3900.000 E3.23104
G1 X56.421 Y106.117 E3.29539
G1 X54.801 Y105.527 E3.35949
G1 X53.531 Y104.887 E3.41237
G1 X52.321 Y104.117 E3.46570
G1 X51.281 Y103.137 E3.51884
G1 X50.461 Y101.967 E3.57196
G1 X48.971 Y99.337 E3.68436
G1 X48.461 Y98.227 E3.72978
G1 X48.141 Y97.047 E3.77524
G1 X47.901 Y95.737 E3.82476
G1 X47.811 Y95.077 E3.84953
G1 X47.781 Y94.417 E3.87409
G1 X47.781 Y66.817 E4.90035
G1 X47.991 Y65.057 E4.96625
G1 X48.621 Y63.407 E5.03193
G1 X49.311 Y62.097 E5.08698
G1 X49.691 Y61.457 E5.11466
G1 X50.141 Y60.847 E5.14284
G1 X51.231 Y59.527 E5.20649
G1 X52.351 Y58.437 E5.26461
G1 X53.691 Y57.607 E5.32321
G1 X54.911 Y57.017 E5.37360
G1 X56.461 Y56.467 E5.43476
G1 X58.091 Y56.287 E5.49574
G1 X124.091 Y56.287 E7.94982
G1 X125.481 Y56.417 E8.00173
G1 X126.831 Y56.817 E8.05409
G1 X128.071 Y57.457 E8.10597
G1 X129.171 Y58.327 E8.15812
G1 X132.511 Y61.547 E8.33063
G1 X133.541 Y62.807 E8.39114
G1 X134.281 Y64.257 E8.45167
G1 X134.681 Y65.827 E8.51191
G1 X134.861 Y67.147 E8.56145
G1 X134.921 Y68.197 E8.60055
G1 X134.711 Y91.957 E9.48406
G1 X134.681 Y93.267 E9.53278
G1 X134.581 Y94.347 E9.57311
G1 X134.311 Y95.407 E9.61378
G1 X133.871 Y96.727 E9.66552
G1 X133.601 Y97.417 E9.69307
G1 X133.011 Y98.727 E9.74649
G1 X132.711 Y99.317 E9.77110
G1 X131.231 Y101.947 E9.88332
G1 X130.321 Y103.227 E9.94171
G1 X129.141 Y104.287 E10.00069
G1 X127.771 Y105.067 E10.05931
G1 X126.261 Y105.537 E10.11811
G1 X125.491 Y105.687 E10.14728
G1 X124.831 Y105.787 E10.17210
G1 X124.161 Y105.817 E10.19704
G1 X118.240 Y105.877 E10.41723
G1 X118.161 Y105.227 F11700.000
G1 X58.141 Y105.657 F3900.000 E12.64902
G1 X56.571 Y105.477 E12.70778
G1 X55.091 Y104.937 E12.76636
G1 X53.821 Y104.297 E12.81924
G1 X52.721 Y103.607 E12.86752
G1 X51.781 Y102.707 E12.91591
G1 X51.031 Y101.637 E12.96449
G1 X49.541 Y99.007 E13.07689
G1 X49.071 Y97.997 E13.11831
G1 X48.781 Y96.927 E13.15953
G1 X48.541 Y95.617 E13.20905
G1 X48.461 Y95.017 E13.23156
G1 X48.431 Y94.417 E13.25390
G1 X48.431 Y66.817 E14.28015
G1 X48.631 Y65.217 E14.34011
G1 X49.201 Y63.717 E14.39977
G1 X49.891 Y62.407 E14.45483
G1 X50.241 Y61.817 E14.48034
G1 X50.651 Y61.267 E14.50584
G1 X51.741 Y59.947 E14.56950
G1 X52.761 Y58.947 E14.62261
G1 X53.971 Y58.197 E14.67554
G1 X55.191 Y57.607 E14.72593
G1 X56.601 Y57.107 E14.78156
G1 X58.091 Y56.937 E14.83732
G1 X124.091 Y56.937 E17.29141
G1 X125.361 Y57.057 E17.33884
G1 X126.581 Y57.427 E17.38624
G1 X127.711 Y58.007 E17.43347
G1 X128.711 Y58.807 E17.48109
G1 X132.051 Y62.027 E17.65360
G1 X132.991 Y63.167 E17.70854
G1 X133.661 Y64.487 E17.76358
G1 X134.031 Y65.917 E17.81850
G1 X134.211 Y67.237 E17.86804
G1 X134.271 Y68.197 E17.90380
G1 X134.061 Y91.937 E18.78656
G1 X134.031 Y93.247 E18.83529
G1 X133.931 Y94.237 E18.87229
G1 X133.691 Y95.207 E18.90944
G1 X133.251 Y96.527 E18.96118
G1 X133.001 Y97.147 E18.98603
G1 X132.411 Y98.457 E19.03946
G1 X132.141 Y98.987 E19.06157
G1 X130.661 Y101.617 E19.17379
G1 X129.821 Y102.787 E19.22734
G1 X128.761 Y103.757 E19.28077
G1 X127.511 Y104.467 E19.33422
G1 X126.131 Y104.887 E19.38786
G1 X125.361 Y105.037 E19.41703
G1 X124.761 Y105.127 E19.43959
G1 X124.161 Y105.167 E19.46194
G1 X118.260 Y105.226 E19.68139
G1 F1800.000 E18.68139
G92 E0
G1 Z0.650 F11700.000
G1 X85.091 Y95.091
G1 F1800.000 E1.00000
G1 X85.091 Y94.566 F3600.000 E1.01160
G1 X82.091 Y86.480 F11700.000
G1 X82.091 Y85.873 F3600.000 E1.02497
G1 F1800.000 E0.02497
G92 E0
G1 Z0.750 F11700.000
G1 X91.091 Y90.922
G1 F1800.000 E1.00000
G1 X91.091 Y63.597 F3600.000 E1.80348
G1 X94.091 Y63.597 E1.89170
G1 X94.091 Y65.631 E1.95149
G1 F1800.000 E0.95149
G92 E0
G1 X88.091 Y65.780 F11700.000
G1 F1800.000 E1.00000
G1 X88.091 Y63.597 F3600.000 E1.06419
G1 X85.091 Y63.597 E1.15240
G1 X85.091 Y98.526 E2.17949
G1 X82.091 Y98.526 E2.26770
G1 X82.091 Y63.597 E3.29479
G1 X79.091 Y63.597 E3.38300
G1 X79.091 Y98.526 E4.41009
G1 X76.091 Y98.526 E4.49830
G1 X76.091 Y63.597 E5.52539
G1 X73.091 Y63.597 E5.61360
G1 X73.091 Y98.526 E6.64069
G1 X70.091 Y98.526 E6.72890
G1 X70.091 Y63.597 E7.75599
G1 X67.091 Y63.597 E7.84421
G1 X67.091 Y98.530 E8.87142
G1 X64.091 Y98.526 E8.95964
G1 X64.091 Y63.597 E9.98672
G1 X61.091 Y63.597 E10.07493
G1 X61.091 Y98.526 E11.10202
G1 X61.091 Y98.528 F11700.000
G1 X61.091 Y98.545 F3600.000 E11.10252
G1 X58.091 Y98.591 F11700.000
G1 X58.091 Y63.597 F3600.000 E12.13151
G1 X55.091 Y66.986 E12.26460
G1 X55.091 Y82.062 E12.70791
G1 X58.091 Y98.985 F11700.000
G1 X58.091 Y98.998 F3600.000 E12.70829
G1 F1800.000 E11.70829
G92 E0
G1 X88.091 Y94.832 F11700.000
G1 F1800.000 E1.00000
G1 X88.091 Y98.526 F3600.000 E1.10861
G1 X91.091 Y98.526 E1.19683
G1 X91.091 Y95.980 E1.27170
G1 F1800.000 E0.27170
G92 E0
G1 X94.091 Y92.495 F11700.000
G1 F1800.000 E1.00000
G1 X94.091 Y98.526 F3600.000 E1.17733
G1 X97.091 Y98.526 E1.26554
G1 X97.091 Y63.597 E2.29262
G1 X100.091 Y63.597 E2.38084
G1 X100.091 Y98.526 E3.40792
G1 X103.091 Y98.526 E3.49614
G1 X103.091 Y63.597 E4.52321
G1 X106.091 Y63.597 E4.61143
G1 X106.091 Y98.526 E5.63851
G1 X109.091 Y98.526 E5.72673
G1 X109.091 Y63.597 E6.75381
G1 X112.091 Y63.597 E6.84203
G1 X112.091 Y98.526 E7.86911
G1 X115.091 Y98.525 E7.95732
G1 X115.091 Y63.597 E8.98440
G1 X118.091 Y63.597 E9.07261
G1 X118.091 Y98.572 E10.10106
G1 X121.091 Y98.526 E10.18929
G1 X121.091 Y63.597 E11.21637
G1 X124.091 Y63.597 E11.30459
G1 X124.091 Y98.511 E12.33122
G1 X127.091 Y93.185 E12.51095
G1 X127.091 Y93.015 E12.51597
G1 X127.091 Y92.881 F11700.000
G1 X127.091 Y91.725 F3600.000 E12.54998
G1 F1800.000 E11.54998
G92 E0
G1 X127.091 Y78.876 F11700.000
G1 F1800.000 E1.00000
G1 X127.091 Y78.643 F3600.000 E1.00685
G1 F1800.000 E0.00685
G92 E0
G1 X127.091 Y75.624 F11700.000
G1 F1800.000 E1.00000
G1 X127.091 Y75.567 F3600.000 E1.00165
G1 X127.091 Y68.823 F11700.000
G1 X127.091 Y66.992 F3600.000 E1.05550
G1 F1800.000 E0.05550
G92 E0
G1 X88.037 Y67.519 F11700.000
G1 F1800.000 E1.00000
G1 X88.060 Y74.929 F3900.000 E1.21790
G1 X88.112 Y77.413 E1.29097
G1 X88.226 Y79.685 E1.35786
G1 X88.536 Y83.138 E1.45979
G1 X88.862 Y85.925 E1.54233
G1 X89.248 Y88.603 E1.62186
G1 X89.369 Y89.268 E1.64176
