; generated by Slic3r 0.9.10b on 2013-10-11 at 19:04:08

; layer_height = 0.4
; perimeters = 2
; top_solid_layers = 3
; bottom_solid_layers = 3
; fill_density = 0.4
; perimeter_speed = 65
; infill_speed = 80
; travel_speed = 195
; nozzle_diameter = 0.5
; filament_diameter = 3
; extrusion_multiplier = 1
; perimeters extrusion width = 0.53mm
; infill extrusion width = 0.53mm
; solid infill extrusion width = 0.53mm
; top infill extrusion width = 0.53mm
; support material extrusion width = 0.53mm
; first layer extrusion width = 0.70mm

G21 ; set units to millimeters
M107
M190 S60 ; wait for bed temperature to be reached
M104 S185 ; set temperature
G28 ; home all axes
M92 X62.9701; calibrate X
M92 Y62.6659; calibrate Y
M92 Z2375.1959; calibrate Z
M92 E472; calibrate E
M109 S185 ; wait for temperature to be reached
G90 ; use absolute coordinates
G92 E0
M82 ; use absolute distances for extrusion
G1 F1800.000 E-1.00000
G92 E0
G1 Z0.350 F11700.000
G1 X75.160 Y68.504
G1 F1800.000 E1.00000
G1 X79.630 Y64.554 F1365.000 E1.19408
G1 X81.120 Y63.534 E1.25283
G1 X82.830 Y62.904 E1.31212
G1 X86.390 Y62.084 E1.43098
G1 X87.160 Y61.954 E1.45638
G1 X87.930 Y61.904 E1.48149
G1 X93.930 Y61.824 E1.67672
G1 X94.960 Y61.884 E1.71028
G1 X95.980 Y62.084 E1.74410
G1 X99.240 Y62.984 E1.85413
G1 X100.210 Y63.334 E1.88769
G1 X101.130 Y63.804 E1.92130
G1 X103.270 Y65.124 E2.00310
G1 X104.390 Y65.984 E2.04905
G1 X105.330 Y67.034 E2.09490
G1 X108.210 Y70.974 E2.25368
G1 X108.930 Y72.184 E2.29949
G1 X109.400 Y73.514 E2.34539
G1 X110.400 Y77.494 E2.47890
G1 X110.540 Y78.274 E2.50468
G1 X110.890 Y80.904 E2.59100
G1 X110.950 Y81.544 E2.61192
G1 X110.950 Y82.194 E2.63307
G1 X110.890 Y83.514 E2.67606
G1 X110.710 Y84.804 E2.71843
G1 X110.310 Y86.034 E2.76052
G1 X109.200 Y88.654 E2.85309
G1 X108.900 Y89.294 E2.87609
G1 X108.540 Y89.894 E2.89885
G1 X105.880 Y93.844 E3.05379
G1 X105.100 Y94.804 E3.09404
G1 X104.180 Y95.624 E3.13413
G1 X102.140 Y97.134 E3.21671
G1 X100.180 Y98.454 E3.29359
G1 X99.220 Y98.994 E3.32943
G1 X98.190 Y99.384 E3.36526
G1 X93.830 Y100.694 E3.51338
G1 X92.790 Y100.934 E3.54810
G1 X91.730 Y101.004 E3.58267
G1 X89.030 Y101.004 E3.67051
G1 X87.640 Y100.874 E3.71593
G1 X86.300 Y100.474 E3.76143
G1 X83.050 Y99.164 E3.87544
G1 X81.630 Y98.404 E3.92784
G1 X80.410 Y97.354 E3.98021
G1 X77.130 Y93.814 E4.13722
G1 X74.340 Y90.604 E4.27559
G1 X73.310 Y89.064 E4.33587
G1 X72.700 Y87.314 E4.39617
G1 X71.870 Y83.374 E4.52717
G1 X71.760 Y82.624 E4.55183
G1 X71.720 Y81.864 E4.57659
G1 X71.720 Y78.634 E4.68168
G1 X71.750 Y77.884 E4.70610
G1 X71.870 Y77.144 E4.73049
G1 X72.840 Y72.494 E4.88504
G1 X73.320 Y71.004 E4.93597
G1 X74.100 Y69.654 E4.98670
G1 X75.094 Y68.576 E5.03438
G1 X75.590 Y68.994 F11700.000
G1 X80.060 Y65.044 F1365.000 E5.22845
G1 X81.430 Y64.114 E5.28233
G1 X82.980 Y63.544 E5.33606
G1 X86.540 Y62.724 E5.45492
G1 X87.230 Y62.604 E5.47770
G1 X87.940 Y62.554 E5.50086
G1 X93.940 Y62.474 E5.69609
G1 X94.880 Y62.534 E5.72673
G1 X95.800 Y62.714 E5.75723
G1 X99.060 Y63.614 E5.86727
G1 X99.950 Y63.934 E5.89804
G1 X100.780 Y64.364 E5.92845
G1 X102.920 Y65.684 E6.01026
G1 X103.950 Y66.464 E6.05229
G1 X104.800 Y67.424 E6.09401
G1 X107.680 Y71.364 E6.25279
G1 X108.340 Y72.464 E6.29453
G1 X108.770 Y73.674 E6.33631
G1 X109.760 Y77.654 E6.46975
G1 X109.890 Y78.354 E6.49291
G1 X110.240 Y80.984 E6.57923
G1 X110.290 Y81.574 E6.59850
G1 X110.290 Y82.164 E6.61769
G1 X110.230 Y83.484 E6.66068
G1 X110.070 Y84.654 E6.69910
G1 X109.710 Y85.784 E6.73769
G1 X108.600 Y88.404 E6.83027
G1 X108.320 Y88.974 E6.85093
G1 X107.990 Y89.524 E6.87180
G1 X105.330 Y93.474 E7.02673
G1 X104.630 Y94.344 E7.06306
G1 X103.780 Y95.094 E7.09995
G1 X101.770 Y96.584 E7.18135
G1 X99.810 Y97.904 E7.25823
G1 X98.940 Y98.404 E7.29088
G1 X98.010 Y98.764 E7.32332
G1 X93.650 Y100.074 E7.47144
G1 X92.700 Y100.284 E7.50310
G1 X91.730 Y100.354 E7.53474
G1 X89.030 Y100.354 E7.62258
G1 X87.760 Y100.234 E7.66409
G1 X86.540 Y99.864 E7.70557
G1 X83.290 Y98.554 E7.81957
G1 X82.000 Y97.864 E7.86717
G1 X80.900 Y96.904 E7.91467
G1 X77.470 Y93.204 E8.07882
G1 X74.830 Y90.164 E8.20982
G1 X73.900 Y88.764 E8.26450
G1 X73.350 Y87.174 E8.31924
G1 X72.520 Y83.234 E8.45024
G1 X72.410 Y82.554 E8.47265
G1 X72.370 Y81.864 E8.49514
G1 X72.370 Y78.634 E8.60023
G1 X72.410 Y77.954 E8.62239
G1 X72.510 Y77.274 E8.64475
G1 X73.480 Y72.624 E8.79930
G1 X73.920 Y71.274 E8.84549
G1 X74.630 Y70.044 E8.89170
G1 X75.524 Y69.067 E8.93478
G1 F1800.000 E7.93478
G92 E0
G1 X80.553 Y75.300 F11700.000
G1 F1800.000 E1.00000
G1 X80.477 Y75.300 F1260.000 E1.00247
G1 X80.010 Y73.986 E1.04784
G1 X81.386 Y73.986 E1.09261
G1 X81.727 Y72.672 E1.13679
G1 X82.564 Y72.672 E1.16401
G1 X83.105 Y71.358 E1.21025
G1 X84.129 Y71.358 E1.24355
G1 X84.474 Y70.043 E1.28775
G1 X86.533 Y70.043 E1.35474
G1 F1800.000 E0.35474
G92 E0
G1 X95.203 Y70.043 F11700.000
G1 F1800.000 E1.00000
G1 X97.299 Y70.043 F1260.000 E1.06820
G1 X97.725 Y71.358 E1.11315
G1 X99.435 Y71.358 E1.16878
G1 X99.278 Y72.672 E1.21184
G1 X100.125 Y72.672 E1.23938
G1 X100.406 Y73.986 E1.28310
G1 X101.321 Y73.986 E1.31288
G1 X101.251 Y75.300 E1.35570
G1 X102.313 Y75.300 E1.39025
G1 X101.883 Y76.614 E1.43523
G1 X102.526 Y76.614 E1.45616
G1 X102.329 Y77.928 E1.49939
G1 X102.975 Y77.928 E1.52041
G1 X103.292 Y79.242 E1.56440
G1 X102.616 Y79.242 E1.58640
G1 X102.746 Y80.557 E1.62937
G1 X103.414 Y80.557 E1.65110
G1 X103.643 Y81.871 E1.69450
G1 X102.739 Y81.871 E1.72389
G1 X102.594 Y83.185 E1.76690
G1 X103.586 Y83.185 E1.79920
G1 F1800.000 E0.79920
G92 E0
G1 X102.473 Y85.813 F11700.000
G1 F1800.000 E1.00000
G1 X101.777 Y85.813 F1260.000 E1.02267
G1 F1800.000 E0.02267
G92 E0
G1 X100.606 Y88.442 F11700.000
G1 F1800.000 E1.00000
G1 X100.478 Y88.442 F1260.000 E1.00416
G1 X99.816 Y89.756 F11700.000
G1 X99.041 Y89.756 F1260.000 E1.02938
G1 X98.056 Y91.070 F11700.000
G1 X97.350 Y91.070 F1260.000 E1.05234
G1 X96.092 Y92.384 F11700.000
G1 X95.132 Y92.384 F1260.000 E1.08357
G1 F1800.000 E0.08357
G92 E0
G1 X91.735 Y93.698 F11700.000
G1 F1800.000 E1.00000
G1 X91.475 Y93.698 F1260.000 E1.00846
G1 X91.362 Y93.698 F11700.000
G1 X91.331 Y93.698 F1260.000 E1.00948
G1 X90.508 Y93.698 F11700.000
G1 X89.977 Y93.698 F1260.000 E1.02674
G1 X89.217 Y93.698 F11700.000
G1 X89.031 Y93.698 F1260.000 E1.03278
G1 X87.272 Y92.384 E1.10422
G1 X85.784 Y92.384 E1.15264
G1 F1800.000 E0.15264
G92 E0
G1 X79.993 Y85.813 F11700.000
G1 F1800.000 E1.00000
G1 X79.862 Y85.813 F1260.000 E1.00426
G1 F1800.000 E0.00426
G92 E0
G1 X79.054 Y81.871 F11700.000
G1 F1800.000 E1.00000
G1 X79.030 Y81.871 F1260.000 E1.00078
G1 F1800.000 E0.00078
G92 E0
G1 X79.030 Y79.242 F11700.000
G1 F1800.000 E1.00000
G1 X79.193 Y79.242 F1260.000 E1.00528
G1 F1800.000 E0.00528
G92 E0
G1 X81.839 Y79.523 F11700.000
G1 F1800.000 E1.00000
G1 X82.058 Y78.579 F1365.000 E1.03152
G1 X82.223 Y78.063 E1.04913
G1 X82.398 Y77.601 E1.06521
G1 X82.756 Y76.827 E1.09296
G1 X83.238 Y76.011 E1.12378
G1 X83.547 Y75.570 E1.14131
G1 X83.834 Y75.208 E1.15634
G1 X84.372 Y74.617 E1.18234
G1 X85.062 Y73.986 E1.21277
G1 X85.663 Y73.534 E1.23722
G1 X86.384 Y73.081 E1.26492
G1 X86.879 Y72.821 E1.28314
G1 X87.264 Y72.644 E1.29693
G1 X88.006 Y72.361 E1.32274
G1 X88.915 Y72.110 E1.35344
G1 X89.712 Y71.967 E1.37977
G1 X90.550 Y71.894 E1.40716
G1 X91.451 Y71.908 E1.43646
G1 X92.038 Y71.960 E1.45565
G1 X92.544 Y72.036 E1.47230
G1 X93.447 Y72.249 E1.50246
G1 X94.134 Y72.476 E1.52600
G1 X94.596 Y72.664 E1.54223
G1 X95.042 Y72.872 E1.55826
G1 X95.683 Y73.226 E1.58207
G1 X96.552 Y73.826 E1.61642
G1 X97.149 Y74.332 E1.64188
G1 X97.766 Y74.960 E1.67052
G1 X98.368 Y75.709 E1.70181
G1 X98.825 Y76.411 E1.72906
G1 X99.237 Y77.192 E1.75779
G1 X99.561 Y77.974 E1.78531
G1 X99.710 Y78.422 E1.80068
G1 X99.838 Y78.891 E1.81650
G1 X99.974 Y79.540 E1.83807
G1 X100.051 Y80.084 E1.85594
G1 X100.100 Y80.820 E1.87994
G1 X100.088 Y81.622 E1.90603
G1 X100.047 Y82.130 E1.92263
G1 X99.965 Y82.682 E1.94080
G1 X99.835 Y83.297 E1.96124
G1 X99.682 Y83.844 E1.97971
G1 X99.366 Y84.701 E2.00943
G1 X98.981 Y85.492 E2.03804
G1 X98.558 Y86.194 E2.06471
G1 X98.091 Y86.833 E2.09046
G1 X97.689 Y87.302 E2.11058
G1 X97.401 Y87.601 E2.12406
G1 X96.725 Y88.210 E2.15367
G1 X96.111 Y88.670 E2.17866
G1 X95.348 Y89.141 E2.20780
G1 X94.706 Y89.463 E2.23117
G1 X93.852 Y89.800 E2.26106
G1 X92.960 Y90.053 E2.29122
G1 X92.053 Y90.215 E2.32119
G1 X91.112 Y90.286 E2.35188
G1 X90.389 Y90.272 E2.37544
G1 X89.741 Y90.211 E2.39660
G1 X89.305 Y90.144 E2.41096
G1 X88.360 Y89.924 E2.44253
G1 X87.528 Y89.641 E2.47112
G1 X86.724 Y89.278 E2.49981
G1 X86.001 Y88.867 E2.52687
G1 X85.325 Y88.398 E2.55365
G1 X84.937 Y88.083 E2.56989
G1 X84.539 Y87.725 E2.58732
G1 X84.100 Y87.272 E2.60784
G1 X83.813 Y86.945 E2.62200
G1 X83.395 Y86.393 E2.64451
G1 X82.963 Y85.717 E2.67062
G1 X82.568 Y84.966 E2.69824
G1 X82.369 Y84.505 E2.71457
G1 X82.198 Y84.042 E2.73062
G1 X81.941 Y83.140 E2.76114
G1 X81.803 Y82.396 E2.78575
G1 X81.722 Y81.572 E2.81270
G1 X81.725 Y80.542 E2.84622
G1 X81.829 Y79.618 E2.87647
G1 X82.460 Y79.307 F11700.000
G1 F1800.000 E1.87647
G92 E0
G1 X80.407 Y78.868 F11700.000
G1 F1800.000 E1.00000
G1 X80.483 Y78.393 F1365.000 E1.01564
G1 X80.549 Y78.148 E1.02389
G1 X81.094 Y76.722 E1.07355
G1 X81.143 Y76.550 E1.07939
G1 X81.284 Y76.262 E1.08983
G1 X81.876 Y75.287 E1.12692
G1 X82.342 Y74.559 E1.15504
G1 X82.543 Y74.311 E1.16544
G1 X83.547 Y73.270 E1.21249
G1 X84.015 Y72.820 E1.23362
G1 X84.422 Y72.495 E1.25055
G1 X85.533 Y71.797 E1.29325
G1 X86.713 Y71.170 E1.33673
G1 X87.192 Y70.987 E1.35339
G1 X88.066 Y70.736 E1.38299
G1 X88.617 Y70.601 E1.40144
G1 X89.718 Y70.392 E1.43791
G1 X90.325 Y70.334 E1.45775
G1 X91.749 Y70.385 E1.50412
G1 X93.173 Y70.559 E1.55078
G1 X93.472 Y70.633 E1.56079
G1 X93.684 Y70.718 E1.56824
G1 X94.361 Y70.925 E1.59127
G1 X95.367 Y71.290 E1.62609
G1 X95.588 Y71.386 E1.63394
G1 X97.255 Y72.389 E1.69723
G1 X97.409 Y72.537 E1.70418
G1 X98.370 Y73.329 E1.74469
G1 X98.483 Y73.443 E1.74992
G1 X98.616 Y73.617 E1.75703
G1 X99.355 Y74.412 E1.79235
G1 X99.558 Y74.736 E1.80479
G1 X100.036 Y75.380 E1.83090
G1 X100.308 Y75.910 E1.85025
G1 X100.633 Y76.468 E1.87126
G1 X100.934 Y77.255 E1.89868
G1 X101.051 Y77.480 E1.90693
G1 X101.247 Y78.218 E1.93178
G1 X101.396 Y78.651 E1.94668
G1 X101.440 Y79.041 E1.95947
G1 X101.614 Y79.935 E1.98907
G1 X101.608 Y80.219 E1.99833
G1 X101.652 Y81.084 E2.02650
G1 X101.674 Y81.224 E2.03113
G1 X101.674 Y81.381 E2.03621
G1 X101.622 Y81.759 E2.04863
G1 X101.540 Y82.803 E2.08269
G1 X101.134 Y84.445 E2.13773
G1 X101.045 Y84.721 E2.14717
G1 X100.257 Y86.427 E2.20833
G1 X100.075 Y86.735 E2.21997
G1 X99.405 Y87.647 E2.25679
G1 X98.763 Y88.454 E2.29033
G1 X98.489 Y88.729 E2.30296
G1 X98.037 Y89.119 E2.32237
G1 X97.306 Y89.708 E2.35293
G1 X96.748 Y90.130 E2.37568
G1 X96.352 Y90.376 E2.39086
G1 X95.491 Y90.795 E2.42201
G1 X94.947 Y91.036 E2.44136
G1 X94.372 Y91.283 E2.46173
G1 X94.002 Y91.399 E2.47435
G1 X92.838 Y91.647 E2.51306
G1 X92.123 Y91.782 E2.53674
G1 X91.801 Y91.820 E2.54729
G1 X90.528 Y91.810 E2.58869
G1 X90.080 Y91.826 E2.60331
G1 X89.760 Y91.791 E2.61376
G1 X88.051 Y91.470 E2.67035
G1 X87.860 Y91.416 E2.67680
G1 X86.267 Y90.804 E2.73231
G1 X85.953 Y90.644 E2.74380
G1 X84.539 Y89.769 E2.79790
G1 X84.309 Y89.593 E2.80731
G1 X83.122 Y88.521 E2.85936
G1 X82.935 Y88.328 E2.86809
G1 X81.912 Y87.006 E2.92249
G1 X81.829 Y86.882 E2.92733
G1 X81.054 Y85.429 E2.98093
G1 X80.953 Y85.189 E2.98938
G1 X80.614 Y84.127 E3.02565
G1 X80.482 Y83.772 E3.03797
G1 X80.415 Y83.500 E3.04710
G1 X80.416 Y83.411 E3.04999
G1 X80.181 Y82.011 E3.09617
G1 X80.163 Y81.713 E3.10590
G1 X80.187 Y80.028 E3.16070
G1 X80.386 Y78.964 E3.19593
G1 X80.858 Y78.700 F11700.000
G1 F1800.000 E2.19593
G92 E0
G1 X85.366 Y89.479 F11700.000
G1 F1800.000 E1.00000
G1 X84.402 Y88.515 F420.000 E1.04489
G1 X83.486 Y87.598 F11700.000
G1 X82.404 Y86.517 F420.000 E1.09525
G1 X81.852 Y85.024 E1.14768
G1 X81.512 Y84.684 E1.16352
G1 X81.352 Y83.584 E1.20013
G1 X81.090 Y83.321 E1.21238
G1 X81.123 Y82.413 E1.24229
G1 X80.910 Y82.201 E1.25219
G1 X81.039 Y81.390 E1.27925
G1 X80.853 Y81.203 E1.28792
G1 X81.050 Y80.460 E1.31326
G1 X80.860 Y80.269 E1.32213
G1 X81.129 Y79.598 E1.34595
G1 X80.986 Y79.455 E1.35263
G1 X81.294 Y78.822 E1.37580
G1 X81.131 Y78.659 E1.38338
G1 X81.499 Y78.086 E1.40581
G1 X81.352 Y77.940 E1.41264
G1 X81.749 Y77.396 E1.43481
G1 X81.610 Y77.257 E1.44129
G1 X82.039 Y76.745 E1.46328
G1 X81.883 Y76.589 E1.47052
G1 X82.366 Y76.131 E1.49244
G1 X82.233 Y75.998 E1.49863
G1 X82.729 Y75.554 E1.52057
G1 X82.599 Y75.423 E1.52665
G1 X83.126 Y75.010 E1.54871
G1 X82.972 Y74.856 E1.55587
G1 X83.426 Y74.369 E1.57779
G1 X83.554 Y74.497 E1.58376
G1 X84.014 Y74.017 E1.60567
G1 X83.887 Y73.890 E1.61160
G1 X84.370 Y73.432 E1.63352
G1 X84.508 Y73.570 E1.63994
G1 X85.031 Y73.152 E1.66198
G1 X84.889 Y73.010 E1.66858
G1 X85.457 Y72.637 E1.69095
G1 X85.589 Y72.770 E1.69711
G1 X86.046 Y72.286 E1.71903
G1 X86.180 Y72.420 E1.72526
G1 X86.661 Y71.960 E1.74718
G1 X86.808 Y72.107 E1.75404
G1 X87.304 Y71.663 E1.77598
G1 X87.472 Y71.830 E1.78377
G1 X88.034 Y71.452 E1.80609
G1 X88.179 Y71.597 E1.81286
G1 X88.782 Y71.260 E1.83562
G1 X88.935 Y71.413 E1.84275
G1 X89.576 Y71.112 E1.86605
G1 X89.746 Y71.283 E1.87398
G1 X90.418 Y71.014 E1.89781
G1 X90.618 Y71.214 E1.90714
G1 X91.391 Y71.047 E1.93319
G1 X91.582 Y71.238 E1.94209
G1 X92.427 Y71.142 E1.97009
G1 X92.651 Y71.366 E1.98052
G1 X93.635 Y71.409 E2.01297
G1 X93.906 Y71.680 E2.02558
G1 X95.080 Y71.913 E2.06498
G1 X95.532 Y72.366 E2.08608
G1 F1800.000 E1.08608
G92 E0
G1 X99.635 Y76.468 F11700.000
G1 F1800.000 E1.00000
G1 X100.056 Y76.889 F420.000 E1.01963
G1 X100.317 Y78.091 E1.06011
G1 X100.582 Y78.356 E1.07247
G1 X100.626 Y79.341 E1.10494
G1 X100.843 Y79.558 E1.11505
G1 X100.757 Y80.412 E1.14332
G1 X100.953 Y80.609 E1.15248
G1 X100.777 Y81.373 E1.17832
G1 X100.961 Y81.557 E1.18690
G1 X100.715 Y82.251 E1.21116
G1 X100.882 Y82.419 E1.21897
G1 X100.583 Y83.060 E1.24227
G1 X100.738 Y83.215 E1.24951
G1 X100.397 Y83.815 E1.27223
G1 X100.548 Y83.966 E1.27929
G1 X100.165 Y84.523 E1.30156
G1 X100.313 Y84.671 E1.30845
G1 X99.890 Y85.190 E1.33047
G1 X100.026 Y85.325 E1.33677
G1 X99.577 Y85.817 E1.35870
G1 X99.717 Y85.957 E1.36523
G1 X99.226 Y86.407 E1.38716
G1 X99.365 Y86.546 E1.39364
G1 X98.843 Y86.964 E1.41568
G1 X98.972 Y87.094 E1.42169
G1 X98.557 Y87.619 E1.44375
G1 X98.426 Y87.488 E1.44984
G1 X97.979 Y87.982 E1.47177
G1 X98.128 Y88.130 E1.47869
G1 X97.630 Y88.573 E1.50064
G1 X97.499 Y88.442 E1.50674
G1 X96.987 Y88.871 E1.52873
G1 X97.114 Y88.998 E1.53468
G1 X96.578 Y89.403 E1.55680
G1 X96.440 Y89.265 E1.56322
G1 X96.016 Y89.782 E1.58523
G1 X95.863 Y89.629 E1.59234
G1 X95.386 Y90.092 E1.61425
G1 X95.250 Y89.956 E1.62057
G1 X94.738 Y90.385 E1.64256
G1 X94.600 Y90.246 E1.64899
G1 X94.079 Y90.666 E1.67103
G1 X93.908 Y90.496 E1.67896
G1 X93.323 Y90.851 E1.70151
G1 X93.172 Y90.700 E1.70855
G1 X92.543 Y91.011 E1.73168
G1 X92.384 Y90.852 E1.73909
G1 X91.729 Y91.139 E1.76261
G1 X91.534 Y90.944 E1.77170
G1 X90.789 Y91.139 E1.79708
G1 X90.611 Y90.961 E1.80536
G1 X89.815 Y91.105 E1.83202
G1 X89.583 Y90.874 E1.84281
G1 X88.661 Y90.892 E1.87319
G1 X88.410 Y90.642 E1.88485
G1 X87.303 Y90.475 E1.92173
G1 X86.972 Y90.145 E1.93713
M106 S255
G1 F1800.000 E0.93713
G92 E0
G1 Z0.750 F11700.000
G1 X80.410 Y97.354
G1 F1800.000 E1.00000
G1 X77.130 Y93.814 F2224.050 E1.17944
G1 X74.340 Y90.604 E1.33759
G1 X73.310 Y89.064 E1.40647
G1 X72.700 Y87.314 E1.47538
G1 X71.870 Y83.374 E1.62510
G1 X71.760 Y82.624 E1.65329
G1 X71.720 Y81.864 E1.68159
G1 X71.720 Y78.634 E1.80169
G1 X71.750 Y77.884 E1.82960
G1 X71.870 Y77.144 E1.85747
G1 X72.840 Y72.494 E2.03409
G1 X73.320 Y71.004 E2.09230
G1 X74.100 Y69.654 E2.15027
G1 X75.160 Y68.504 E2.20843
G1 X79.630 Y64.554 E2.43023
G1 X81.120 Y63.534 E2.49737
G1 X82.830 Y62.904 E2.56514
G1 X86.390 Y62.084 E2.70097
G1 X87.160 Y61.954 E2.73001
G1 X87.930 Y61.904 E2.75870
G1 X93.930 Y61.824 E2.98182
G1 X94.960 Y61.884 E3.02018
G1 X95.980 Y62.084 E3.05883
G1 X99.240 Y62.984 E3.18458
G1 X100.210 Y63.334 E3.22293
G1 X101.130 Y63.804 E3.26134
G1 X103.270 Y65.124 E3.35483
G1 X104.390 Y65.984 E3.40734
G1 X105.330 Y67.034 E3.45974
